build/images/socials/facebook.svg

<svg width="8" height="14" viewBox="0 0 8 14" fill="none" xmlns="http://www.w3.org/2000/svg">
<path d="M6.76372 0.003035L5.07793 0.00012207C3.184 0.00012207 1.96006 1.35245 1.96006 3.44554V5.03411H0.265074C0.118607 5.03411 0 5.16199 0 5.31972V7.62138C0 7.77911 0.118743 7.90685 0.265074 7.90685H1.96006V13.7147C1.96006 13.8724 2.07867 14.0001 2.22514 14.0001H4.43661C4.58308 14.0001 4.70169 13.8722 4.70169 13.7147V7.90685H6.68353C6.82999 7.90685 6.9486 7.77911 6.9486 7.62138L6.94941 5.31972C6.94941 5.24399 6.92142 5.17145 6.87178 5.11786C6.82215 5.06426 6.75453 5.03411 6.6842 5.03411H4.70169V3.68746C4.70169 3.04021 4.84491 2.71163 5.62783 2.71163L6.76345 2.71119C6.90978 2.71119 7.02839 2.58331 7.02839 2.42572V0.288503C7.02839 0.131058 6.90992 0.0033263 6.76372 0.003035Z" fill="#BEBEBE"/>
</svg>

<svg width="8" height="14" fill="none" xmlns="http://www.w3.org/2000/svg"><path d="M6.764.003L5.078 0C3.184 0 1.96 1.352 1.96 3.446v1.588H.265C.12 5.034 0 5.162 0 5.32v2.3c0 .158.119.286.265.286H1.96v5.808c0 .157.119.285.265.285h2.212c.146 0 .265-.128.265-.285V7.907h1.982c.146 0 .265-.128.265-.286V5.32a.297.297 0 00-.077-.202.256.256 0 00-.188-.084H4.702V3.687c0-.647.143-.975.926-.975h1.135c.147 0 .265-.129.265-.286V.289c0-.158-.118-.286-.264-.286z" fill="#BEBEBE"/></svg>
